contributed-vectors/n64_emulator_pro.svg

<svg xmlns="http://www.w3.org/2000/svg" viewBox="0 0 192 192"><circle cx="96" cy="96" r="88" fill="#ff837d"/><path fill="#ececec" d="M131.14 81.37c0-5.63-5.11-10.14-5.11-10.14V69c-4.59-3.59-15-3.78-15-3.78l-.55-.87c-6.4-3.87-14.37-3.6-14.52-3.6s-8.12-.27-14.52 3.6l-.55.87S70.56 65.4 66 69v2.23s-5.11 4.51-5.11 10.14-3.81 23.42 1.32 33.18 9.68-7.61 10.18-10.84 2.24-7.2 3.31-7.78c0 0 9.52-.66 9.93 6.79S88.7 130.91 96 131.26c7.29-.35 10-21.1 10.39-28.54s9.93-6.79 9.93-6.79c1.08.58 2.81 4.55 3.31 7.78s5 20.6 10.18 10.84 1.33-27.55 1.33-33.18Z"/><path fill="#ff837d" d="M98.47 85.75A2.47 2.47 0 1 0 96 88.23a2.47 2.47 0 0 0 2.47-2.48Z"/><path fill="#98dc9a" d="M109.54 82.66a2.48 2.48 0 1 0 2.46 2.47 2.48 2.48 0 0 0-2.46-2.47Z"/><path fill="#9abeff" d="M114.25 87.87a2.48 2.48 0 1 0 2.48 2.47 2.48 2.48 0 0 0-2.48-2.47Z"/><circle cx="119.84" cy="84.7" r="1.73" fill="#f9de81"/><circle cx="124.06" cy="80.48" r="1.73" fill="#f9de81"/><circle cx="115.62" cy="80.48" r="1.73" fill="#f9de81"/><circle cx="119.84" cy="76.26" r="1.73" fill="#f9de81"/><path fill="#a0a5af" d="M96 94.89a5 5 0 1 0 5 5 5.06 5.06 0 0 0-5-5Zm0 7.78a2.73 2.73 0 1 1 2.72-2.73 2.73 2.73 0 0 1-2.72 2.73ZM78.4 81.13h-3.48v-3.49a.37.37 0 0 0-.37-.36h-2a.37.37 0 0 0-.37.36v3.49h-3.46a.37.37 0 0 0-.37.36v2a.37.37 0 0 0 .37.36h3.48v3.48a.38.38 0 0 0 .37.37h2a.38.38 0 0 0 .37-.37v-3.49h3.46a.37.37 0 0 0 .37-.36v-2a.37.37 0 0 0-.37-.35Z"/></svg>

<svg xmlns="http://www.w3.org/2000/svg" viewBox="0 0 192 192"><title>N64 Emulator Pro</title><circle cx="96" cy="96" r="88" fill="#ff837d"/><path d="M131.14,81.37c0-5.63-5.11-10.14-5.11-10.14V69c-4.59-3.59-15-3.78-15-3.78l-.55-.87c-6.4-3.87-14.37-3.6-14.52-3.6s-8.12-.27-14.52,3.6l-.55.87S70.56,65.4,66,69v2.23s-5.11,4.51-5.11,10.14-3.81,23.42,1.32,33.18,9.68-7.61,10.18-10.84,2.24-7.2,3.31-7.78c0,0,9.52-.66,9.93,6.79S88.7,130.91,96,131.26h0c7.29-.35,10-21.1,10.39-28.54s9.93-6.79,9.93-6.79c1.08.58,2.81,4.55,3.31,7.78s5,20.6,10.18,10.84S131.14,87,131.14,81.37Z" fill="#ececec"/><path d="M98.47,85.75A2.47,2.47,0,1,0,96,88.23,2.47,2.47,0,0,0,98.47,85.75Z" fill="#ff837d"/><path d="M109.54,82.66A2.48,2.48,0,1,0,112,85.13,2.48,2.48,0,0,0,109.54,82.66Z" fill="#98dc9a"/><path d="M114.25,87.87a2.48,2.48,0,1,0,2.48,2.47A2.48,2.48,0,0,0,114.25,87.87Z" fill="#9abeff"/><circle cx="119.84" cy="84.7" r="1.73" fill="#f9de81"/><circle cx="124.06" cy="80.48" r="1.73" fill="#f9de81"/><circle cx="115.62" cy="80.48" r="1.73" fill="#f9de81"/><circle cx="119.84" cy="76.26" r="1.73" fill="#f9de81"/><path d="M96,94.89a5,5,0,1,0,5,5A5.06,5.06,0,0,0,96,94.89Zm0,7.78a2.73,2.73,0,1,1,2.72-2.73A2.73,2.73,0,0,1,96,102.67Z" fill="#a0a5af"/><path d="M78.4,81.13H74.92V77.64a.37.37,0,0,0-.37-.36h-2a.37.37,0,0,0-.37.36v3.49H68.72a.37.37,0,0,0-.37.36v2a.37.37,0,0,0,.37.36H72.2v3.48a.38.38,0,0,0,.37.37h2a.38.38,0,0,0,.37-.37V83.84H78.4a.37.37,0,0,0,.37-.36v-2A.37.37,0,0,0,78.4,81.13Z" fill="#a0a5af"/></svg>
